X: 1600
T: Rast Peşrev
C: Benli Hasan Ağa
O: Turkey
F: http://compmusic.upf.edu/node/140
N: rast--pesrev--sakil----benli_hasan_aga
N: makam= rast
N: form= pesrev
N: usul= sakil = 32/4
M: 32/4
L: 1/16
K: C _1/4B ^f  
Q: 1/4=78
%%MIDI tuningsystem comma53
z4 .G2 .G2 .G4 F4  | G2 A2 G4 A6 z2  | \
w:   |   | 
G6 _B2 A4 G4  | G F E2 F2 G2 F2 G2 F4  | 
w:   |   | 
z4 .G2 .G2 .G4 F4  | G2 A2 G4 A6 z2  | \
w:   |   | 
G6 c2 B4 A4  | A2 G4 F2 F3 E D4  | z4 .G2 .G2 .G4 F4  | 
w:   |   |   | 
G2 A2 G4 A6 z2  | G6 A2 B4 c2 d2  | B6 G2 A4 G2 F2  | \
w:   |   |   | 
G8 d8  | B6 c2 d4 e4  | 
w:   |   | 
d6 =f2 e4 d4  | {e}d4 c2 B2 A4 B4  | \
w:   |   | 
G6 F2 G3 F G2 A2  | G6 d2 e6 z2  | d4 {f}e2 d2 c4 {e}d2 c2  | 
w:  TESLİM  |   |   | 
B4 {d}c2 B2 A4 {c}B2 A2  | G8 A8  | G3 A B2 c2 B4 A4  | \
w:   |   |   | 
G8 d8  | G6 c2 B2 c2 d4  | 
w:  2. HANEYE  |   | 
z4 .G2 .G2 .G4 c4  | B2 c2 B4 c2 d2 c4  | \
w:   |   | 
d8 z4 .d2 .d2  | .d4 c2 B2 B3 A G4  | 
w:   |   | 
z4 e2 =f2 e4 d4  | e2 =f2 e2 d2 e4 ^f4  | \
w:   |   | 
d6 e2 f4 g4  | e4 {f}e2 f2 g6 z2  | g6 f2 g4 a4  | 
w:   |   |   | 
g4 f4 g3 f e4  | z4 .f2 .f2 .f4 g4  | \
w:   |   | 
f4 e4 d4 e4  | ^c4 d2 c2 d4 e2 d2  | \
w:   |   | 
e6 =f2 e3 d ^c4  | 
w:   | 
d4 {e}d2 e2 f4 g4  | e4 e2 f2 g4 a4  | \
w:   |   | 
f4 g8 f4  | g6 f2 g4 a4  | z4 .f2 .f2 .f4 g4  | 
w:   |   |   | 
f4 e4 d4 e4  | ^c4 {e}d2 c2 d4 {f}e2 d2  | \
w:   |   | 
e6 =f2 e3 d c4  | d8 e2 f2 g2 a2  | f4 g8 z4  | 
w:   |   |   | 
z4 g2 g2 g4 f4  | g2 a2 g2 f2 g4 a2 b2  | \
w:   |   | 
a3 g f2 g2 f4 e4  | f2 g2 f2 e2 f4 g2 a2  | 
w:   |   | 
g3 =f e2 f2 e4 d4  | e2 f2 e2 d2 e4 f2 g2  | \
w:   |   | 
=f3 e d2 e2 d4 c4  | d2 e2 d2 c2 d4 e2 f2  | 
w:   |   | 
e3 d c2 d2 c4 B4  | c2 d2 c2 B2 c4 d2 e2  | \
w:   |   | 
d3 c B2 c2 B4 A4  | B2 c2 B2 A2 B4 c2 d2  | 
w:   |   | 
c3 B A2 B2 A4 G4  | A2 B2 A2 G2 A4 B4  | \
w:   |   | 
G6 c2 B2 c2 d2 e2  | d6 B2 c2 B2 d4  | 
w:   |   | 
G6 c2 B4 A4  | G12 z4  | |


